X: 1194
T: Kaldı Âteşler İçinde
C: Karabet Efendi (Hacı)
O: Turkey
F: http://compmusic.upf.edu/node/140
N: ussak--sarki--agiraksak--kaldi_atesler--haci_karabet_efendi
N: makam= ussak
N: form= sarki
N: usul= agiraksak = 9/4
M: 9/4
L: 1/16
K: C _2/4B   
Q: 1/4=72
%%MIDI tuningsystem comma53
z2f4df e2ce d2Bd c2Ac B2GB A3B c2d2 e2g2  | 
w:   | 
e2f2 e2d2 a3g f2e2 e3d fed^3/4c d8 e2^3/4f2  | \
w:   | 
agg^3/4f ga_b2 baag gffe dedc d2e2 fgef decd BcAB  | 
w:   | 
G3A B2c2 defg fed2 c2A2 B2G2 A3B c2d2 e2g2  | 
w:   | 
z2f4df e2ce d2Bd c2Ac B2GB A3B c2d2 e2g2  | 
w:   | 
e2f2 e2d2 a3g f2e2 e3d fed^3/4c d8 e2^3/4f2  | \
w:   | 
agg^3/4f ga_b2 baag gffe dedc d2e2 fgef decd BcAB  | 
w:   | 
G3A B2c2 defg fed2 c2A2 B2G2 A6G2 ^3/4F2G2  | \
w:   | 
A8 z2G4A2 A8 BcBA B4 c4  | 
w:  *  Kal dı  â teş  | 
d3c B2A4e2 d2dc c3B B3A A6G2 c2BA  | \
w:  *  *  *  *  ler  *  i *  çin *  *  *  de  SAZ  | 
A3B A4 AGA2 z2cd c2d2 d4 d2dc B4 c4  | 
w:  *  *  *  *  *  *  yi *  *  ne  sev dâ   | 
d2dc B2A4ag f2e2 e3d dfed d6ef eddc  | 
w:  *  *  *  *  *  dâ *  *  *  *  *  lı  *  se *  rim   SAZ  | 
d3f egf2 z2ag f2f2 f2e4d2 d2e6 e3d  | \
w:  *  *  *  *  *  Ne *  *  re den  *  *  gör  | 
d2ed cBc4e2 d2e2 c3B A2B2 d8 c2B2  | 
w:  *  *  *  *  *  *  dü  *  se ni  *  *  *  kahr_  | 
c2dc B3A G4 c2c2 c3B B3A A8 e2f2  | \
w:  *  *  *  *  *  *  o la sı  *  *  *  dî  | 
g2ag fed2 c3B cBBA A8 e2fg fed2 e2c2  | 
w:  *  *  *  *  *  *  *  *  de *  le *  rim   SAZ  | 
d3f egf2 z2ag f2f2 f2e4d2 d2e6 e3d  | \
w:  *  *  *  *  *  Ne *  *  re den  *  *  gör  | 
d2ed cBc4e2 d2e2 c3B A2B2 d8 c2B2  | 
w:  *  *  *  *  *  *  dü  *  se ni  *  *  *  kahr_  | 
c2dc B3A G4 c2c2 c3B B3A A8 e2f2  | \
w:  *  *  *  *  *  *  o la sı  *  *  *  dî  | 
g2ag fed2 c3B cBBA A8 agab a2g2 ^3/4f2g2  | 
w:  *  *  *  *  *  *  *  *  de *  le *  rim   SAZ  | 
a3b aga2 z2g4a2 a8 d3e ^3/4f2g2 a2b2  | \
w:  *  *  *  *  *  Gör sem_ â zâr_  | 
c'2b2 a2g4a2 b2d'2 c'3b b3a a6g2 c'2ba  | 
w:  *  *  *  *  ü  *  si tem  *  *  *  gör  | 
a4 _bag^3/4f g4 b2ag g8 f2g2 a2b2 a2g2  | \
w:  *  *  *  *  *  *  me sem_ *  ar tar   | 
^f2_7/8e2 d2c4a2 g2gf f3e feed d6c2 B2c2  | 
w:  *  *  *  *  tar  *  *  *  *  *  ke *  de *  rim   SAZ  | 
d3f egf2 z2ag f2f2 f2e4d2 d2e6 e3d  | \
w:  *  *  *  *  *  Ne *  *  re den  *  *  gör  | 
d2ed cBc4e2 d2e2 c3B A2B2 d8 c2B2  | 
w:  *  *  *  *  *  *  dü  *  se ni  *  *  *  kahr_  | 
c2dc B3A G4 c2c2 c3B B3A A8 e2f2  | \
w:  *  *  *  *  *  *  o la sı  *  *  *  dî  | 
g2ag fed2 c3B cBBA A8 e2fg fed2 e2c2  | 
w:  *  *  *  *  *  *  *  *  de *  le *  rim   SAZ  | 
d3f egf2 z2ag f2f2 f2e4d2 d2e6 e3d  | \
w:  *  *  *  *  *  Ne *  *  re den  *  *  gör  | 
d2ed cBc4e2 d2e2 c3B A2B2 d8 c2B2  | 
w:  *  *  *  *  *  *  dü  *  se ni  *  *  *  kahr_  | 
c2dc B3A G4 c2c2 c3B B3A A8 e2f2  | \
w:  *  *  *  *  *  *  o la sı  *  *  *  dî  | 
g2ag fed2 c3B cBBA A8 |
w:  *  *  *  *  *  *  *  *  de *  le *  rim    | 


